!!!!SEGMENT: pl-kk--kk-i-356--007-002_gabussi-giulio-cesare--sancta-et-immaculata-benedicta.krn
!!!cenid: 17xx:1951
!!!COM: Gabussi, Giulio Cesare
!!!COM-rism: pe30011203
!!!CDT: ~1555-1611
!!!CNT: Italian
!!!OTL: Sancta et immaculata – Benedicta
!!!PDT:
!!!AGN: Sacred
!!!SMS-siglum: PL-Kk
!!!SMS-shelfmark: Kk.I.356
!!!NIFC-rismID: 1001142020
!!!URL-scan: http://repozytorium.nifc.pl/skany/pl-kk-nut--i-356
!!!ONB-nifc: UWAGA: tylko partia basu. Osobne części motetu: 1. Sancta et immaculata, 2. Benedicta
!!!SMS-variant:
!!!SMS-altvar:
**kern	**text
*I"Baſso.	*
*I'B	*
*clefF3	*
*k[]	*
*M2/1	*
*met(C|)	*
=1-	=1-
!LO:TX:a:t=2da pars.	!
00r	.
=2-	=2-
.	.
=3-	=3-
00r	.
=4-	=4-
.	.
=5-	=5-
00r	.
=6-	=6-
.	.
=7-	=7-
0r	.
=8-	=8-
1r	.
1.G	Be-
=9-	=9-
*2\right	*
2G\	-ne-
1F	-di-
=10-	=10-
1E	-cta
!LO:TX:a:t=P:problem:kreska pseudotaktowa	!
1G	tu
=11-	=11-
2r	.
2D/	in
2E/	mu-
2C/	-li-
=12-	=12-
2.E/	-e-
4F/	.
1G	.
!LO:LB:g=original	!
=13-	=13-
1.C	.
2C/	-ri-
=14-	=14-
1G	-bus
!LO:TX:a:t=P:problem:kreska pseudotaktowa	!
1D	.
=15-	=15-
2r	.
2A\	in
2B\	mu-
2G\	-li-
=16-	=16-
2.B\	-e-
4c\	.
2d\	-ri-
2D/	.
=17-	=17-
!LO:TX:a:t=P:problem:kreska pseudotaktowa	!
1A	-bus
1r	.
=18-	=18-
*	*ij
1D	in
1.G	mu-
=19-	=19-
2E/	-li-
2.D/	-e-
4D/	-ri-
=20-	=20-
2C/	-bus
*	*Xij
2c\	et
2c\	be-
2B\	-ne-
=21-	=21-
1c	-di-
2A\	-ct(us)
1d	fru-
=22-	=22-
2d\	-ct(us)
2c\	ven-
2B\	-tris
=23-	=23-
1A	tu-
!LO:TX:a:t=P:problem:kreska pseudotaktowa	!
1G	-i
!LO:LB:g=original	!
=24-	=24-
00r	.
=25-	=25-
.	.
=26-	=26-
0r	.
=27-	=27-
1G	et
2G\	be-
2E/	-ne-
=28-	=28-
1F	-di-
2E/	-ct(us)
1A	fru-
=29-	=29-
2A\	-ct(us)
2.G\	ven-
4F\	-tris
=30-	=30-
1E	tu-
!LO:TX:a:t=P:problem:kreska pseudotaktowa	!
1D	-i
=31-	=31-
00r	.
=32-	=32-
.	.
=33-	=33-
0r	.
=34-	=34-
1r	.
1G	qui-
=35-	=35-
2A\	-a
2A\	Quem
2B\	cae-
2c\	-li
=36-	=36-
2.A\	ca-
4A\	-pe-
2G\	-re
2E/	n(on)
=37-	=37-
1F	po-
2.G\	-te-
4G\	.
=38-	=38-
!LO:TX:a:t=P:problem:kreska pseudotaktowa	!
1C	-rant
0r	.
=39-	=39-
.	.
1r	.
=40-	=40-
2r	.
1G	tu-
2F\	-o
!LO:LB:g=original	!
=41-	=41-
2E/	gre-
2G\	-mi-
1D	-o
=42-	=42-
2G\	con-
2C/	-tu-
2.G\	.
4F\	.
=43-	=43-
1E	-li-
!LO:TX:a:t=P:problem:kreska pseudotaktowa	!
1D	-sti
=44-	=44-
2r	.
1C	tu-
2D/	-o
=45-	=45-
2E/	gre-
2C/	-mi-
1G	-o
=46-	=46-
2r	.
*	*ij
1c	tu-
2B\	-o
=47-	=47-
2A\	gre-
2c\	-mi-
!LO:TX:a:t=P:problem:kreska pseudotaktowa	!
1G	-o
*	*Xij
=48-	=48-
1r	.
1.G	con-
=49-	=49-
2D/	-tu-
1E	-li-
=50-	=50-
!LO:TX:a:t=P:problem:kreska pseudotaktowa	!
1D	-sti
2r	.
1G	tu-
=51-	=51-
2A\	-o
2B\	gre-
2G\	-mi
!LO:LB:g=original	!
=52-	=52-
2c\	-[o]
2.A\	con-
4G\	.
4E/	-tu-
4F/	.
=53-	=53-
2G\	-li-
2C/	.
1F	.
=54-	=54-
1E	-sti
!LO:TX:a:t=P:problem:kreska pseudotaktowa	!
1D	.
=55-	=55-
0r	.
=56-	=56-
1r	.
2r	.
1G	tu-
=57-	=57-
2F/	-o
2E/	gre-
2G\	-mi-
=58-	=58-
1D	-o
2.E/	Con-
4F/	.
=59-	=59-
1G	-tu-
1C	-li-
=60-	=60-
1G	.
1C	.
=61-	=61-
00Gl;\	-sti.
=-	=-
*-	*-
!!!RDF**kern: l = terminal long
!!!ENC: Marta Lawrence
!!!END: 2021-02-23
!!!ENC: Marcin Jachim
!!!END: 2021-02-06
